app/src/images/img/main-page/about1.svg

<svg width="118" height="134" viewBox="0 0 118 134" fill="none" xmlns="http://www.w3.org/2000/svg">
<g filter="url(#filter0_d_703:2156)">
<path d="M58.5715 127.948L4 96.5063V33.4419L58.5715 2L113.143 33.4419V96.5063L58.5715 127.948ZM5.44558 95.6028L58.5715 126.322L111.697 95.6028V34.3454L58.5715 3.62629L5.44558 34.3454V95.6028Z" fill="url(#paint0_angular_703:2156)"/>
</g>
<path d="M42.5307 60.8452L42.5308 60.8451L58.5626 35.4138C58.5626 35.4138 58.5626 35.4138 58.5626 35.4138C58.9229 34.8425 59.5468 34.4974 60.2154 34.4974C60.8841 34.4974 61.508 34.8425 61.8682 35.4138L77.901 60.8452C80.454 64.8953 81.5752 69.7563 81.0573 74.5299C80.5386 79.3034 78.4023 83.8031 75.04 87.1982L75.04 87.1982C71.0793 91.1986 65.8154 93.4007 60.2154 93.4007C54.6155 93.4007 49.3515 91.1986 45.3909 87.1982C42.0295 83.8031 39.8922 79.3034 39.3735 74.5299C38.8557 69.7563 39.9769 64.8954 42.5307 60.8452ZM60.4269 40.5005L60.2154 40.1651L60.0039 40.5005L45.8346 62.9758L46.0461 63.1091L45.8346 62.9758C41.5108 69.8343 42.4669 78.6433 48.1599 84.3943L48.3376 84.2184L48.1599 84.3943C54.8069 91.1079 65.624 91.1079 72.2709 84.3943L72.0933 84.2184L72.2709 84.3943C77.9639 78.6433 78.92 69.8343 74.5962 62.9758L60.4269 40.5005Z" fill="#78859D" stroke="white" stroke-width="0.5"/>
<defs>
<filter id="filter0_d_703:2156" x="0" y="0" width="117.143" height="133.948" filterUnits="userSpaceOnUse" color-interpolation-filters="sRGB">
<feFlood flood-opacity="0" result="BackgroundImageFix"/>
<feColorMatrix in="SourceAlpha" type="matrix" values="0 0 0 0 0 0 0 0 0 0 0 0 0 0 0 0 0 0 127 0" result="hardAlpha"/>
<feOffset dy="2"/>
<feGaussianBlur stdDeviation="2"/>
<feComposite in2="hardAlpha" operator="out"/>
<feColorMatrix type="matrix" values="0 0 0 0 0 0 0 0 0 0 0 0 0 0 0 0 0 0 0.1 0"/>
<feBlend mode="normal" in2="BackgroundImageFix" result="effect1_dropShadow_703:2156"/>
<feBlend mode="normal" in="SourceGraphic" in2="effect1_dropShadow_703:2156" result="shape"/>
</filter>
<radialGradient id="paint0_angular_703:2156" cx="0" cy="0" r="1" gradientUnits="userSpaceOnUse" gradientTransform="translate(142.11 103.701) rotate(149.443) scale(96.7104 138.926)">
<stop offset="0.0112334" stop-color="#E8EACD"/>
<stop offset="0.0701059" stop-color="#D1CDD5"/>
<stop offset="0.178522" stop-color="#B8E4D8"/>
<stop offset="0.240926" stop-color="#B9DAE5"/>
<stop offset="0.311261" stop-color="#BBCDF6"/>
<stop offset="0.800112" stop-color="#DCCFDF"/>
</radialGradient>
</defs>
</svg>

<svg width="118" height="134" fill="none" xmlns="http://www.w3.org/2000/svg"><g filter="url(#filter0_d_703:2156)"><path d="M58.572 127.948L4 96.506V33.442L58.572 2l54.571 31.442v63.064l-54.572 31.442zM5.446 95.603l53.126 30.719 53.125-30.72V34.346L58.571 3.626 5.447 34.346v61.257z" fill="url(#paint0_angular_703:2156)"/></g><path d="M42.53 60.845h0l16.033-25.431s0 0 0 0c.36-.572.984-.917 1.652-.917.67 0 1.293.346 1.653.917l16.033 25.431a21.43 21.43 0 013.156 13.685 21.34 21.34 0 01-6.017 12.668h0c-3.96 4-9.225 6.203-14.825 6.203s-10.864-2.202-14.824-6.203a21.346 21.346 0 01-6.017-12.668 21.426 21.426 0 013.157-13.685zm17.897-20.344l-.212-.336-.211.336-14.17 22.475.212.133-.211-.133c-4.324 6.858-3.368 15.667 2.325 21.418l.178-.176-.178.176c6.647 6.714 17.464 6.714 24.11 0l-.177-.176.178.176c5.693-5.75 6.649-14.56 2.325-21.418L60.426 40.5z" fill="#78859D" stroke="#fff" stroke-width=".5"/><defs><radialGradient id="paint0_angular_703:2156" cx="0" cy="0" r="1" gradientUnits="userSpaceOnUse" gradientTransform="matrix(-83.27963 49.16711 -70.62932 -119.63249 142.11 103.701)"><stop offset=".011" stop-color="#E8EACD"/><stop offset=".07" stop-color="#D1CDD5"/><stop offset=".179" stop-color="#B8E4D8"/><stop offset=".241" stop-color="#B9DAE5"/><stop offset=".311" stop-color="#BBCDF6"/><stop offset=".8" stop-color="#DCCFDF"/></radialGradient><filter id="filter0_d_703:2156" x="0" y="0" width="117.143" height="133.948" filterUnits="userSpaceOnUse" color-interpolation-filters="sRGB"><feFlood flood-opacity="0" result="BackgroundImageFix"/><feColorMatrix in="SourceAlpha" values="0 0 0 0 0 0 0 0 0 0 0 0 0 0 0 0 0 0 127 0" result="hardAlpha"/><feOffset dy="2"/><feGaussianBlur stdDeviation="2"/><feComposite in2="hardAlpha" operator="out"/><feColorMatrix values="0 0 0 0 0 0 0 0 0 0 0 0 0 0 0 0 0 0 0.1 0"/><feBlend in2="BackgroundImageFix" result="effect1_dropShadow_703:2156"/><feBlend in="SourceGraphic" in2="effect1_dropShadow_703:2156" result="shape"/></filter></defs></svg>
